packages/elvis-assets-icons/icons/svg/src/search-bold.svg

<svg width="24" height="24" viewBox="0 0 24 24" fill="none" xmlns="http://www.w3.org/2000/svg">
<path fill-rule="evenodd" clip-rule="evenodd" d="M6.01949 0.78982C11.0425 -1.3449 16.8449 0.996506 18.9797 6.01949C20.448 9.47461 19.7982 13.2979 17.6162 16.0425L23.6734 22.1005C24.1079 22.5351 24.1078 23.2396 23.6732 23.6741C23.2387 24.1087 22.5341 24.1086 22.0996 23.674L16.043 17.6166C15.3594 18.1604 14.5922 18.6217 13.75 18.9797C8.727 21.1144 2.92454 18.773 0.78982 13.75C-1.3449 8.727 0.996505 2.92454 6.01949 0.78982ZM16.9315 6.88996C15.2775 2.99816 10.7817 1.18405 6.88996 2.83802C2.99816 4.492 1.18405 8.98773 2.83802 12.8795C4.492 16.7713 8.98773 18.5854 12.8795 16.9315C13.7878 16.5455 14.5821 16.0052 15.2457 15.3545C15.2625 15.3352 15.2801 15.3164 15.2984 15.2981C15.3164 15.28 15.3351 15.2626 15.3541 15.246C17.4546 13.1013 18.1782 9.82362 16.9315 6.88996Z" fill="black"/>
<path fill-rule="evenodd" clip-rule="evenodd" d="M5 8C4.44772 8 4 8.44772 4 9C4 12.866 7.13401 16 11 16C11.5523 16 12 15.5523 12 15C12 14.4477 11.5523 14 11 14C8.23858 14 6 11.7614 6 9C6 8.44772 5.55228 8 5 8Z" fill="black"/>
</svg>

<svg width="24" height="24" fill="none" xmlns="http://www.w3.org/2000/svg"><path fill-rule="evenodd" clip-rule="evenodd" d="M6.02.79c5.023-2.135 10.825.207 12.96 5.23a9.88 9.88 0 01-1.364 10.023l6.057 6.058a1.113 1.113 0 01-1.573 1.573l-6.057-6.057a9.896 9.896 0 01-2.293 1.363C8.727 21.114 2.925 18.773.79 13.75-1.345 8.727.997 2.925 6.02.79zm10.912 6.1a7.657 7.657 0 10-14.094 5.99 7.657 7.657 0 0014.093-5.99z" fill="#000"/><path fill-rule="evenodd" clip-rule="evenodd" d="M5 8a1 1 0 00-1 1 7 7 0 007 7 1 1 0 100-2 5 5 0 01-5-5 1 1 0 00-1-1z" fill="#000"/></svg>
